flags/gi.svg

<svg width="512" height="512" viewBox="0 0 512 512" fill="none" xmlns="http://www.w3.org/2000/svg">
<rect y="136" width="512" height="240" fill="var(--flag-palette-bright-white, #fcfcfc)"/>
<rect y="344" width="512" height="168" fill="var(--flag-palette-bright-red, #d80027)"/>
<rect width="512" height="168" fill="var(--flag-palette-bright-white, #fcfcfc)"/>
<path d="M356.175 211.478V178.087H367.305V155.826H345.044V166.957H322.784V155.826H300.523V178.087H311.653V211.478H289.392V133.567H300.523V111.307H278.262V122.435H267.131V111.307H244.871V122.435H233.74V111.307H211.479V133.567H222.61V211.478H200.349V178.087H211.479V155.826H189.218V166.957H166.958V155.826H144.697V178.087H155.827V211.478H133.566V300.522H378.436V211.478H356.175Z" fill="var(--flag-palette-bright-red, #d80027)"/>
<path d="M256.001 289.391C237.56 289.391 222.61 304.341 222.61 322.782C222.61 337.318 231.904 349.682 244.871 354.266V400.696H211.48V445.218H267.132V354.267C280.099 349.683 289.393 337.32 289.393 322.783C289.392 304.342 274.442 289.391 256.001 289.391ZM256.001 333.913C249.854 333.913 244.871 328.929 244.871 322.783C244.871 316.636 249.854 311.653 256.001 311.653C262.148 311.653 267.131 316.636 267.131 322.783C267.131 328.929 262.148 333.913 256.001 333.913Z" fill="var(--flag-palette-dark-yellow, #ffc635)"/>
</svg>

<svg xmlns="http://www.w3.org/2000/svg" width="512" height="512" fill="none"><path fill="var(--flag-palette-bright-white, #fcfcfc)" d="M0 136h512v240H0z"/><path fill="var(--flag-palette-bright-red, #d80027)" d="M0 344h512v168H0z"/><path fill="var(--flag-palette-bright-white, #fcfcfc)" d="M0 0h512v168H0z"/><path fill="var(--flag-palette-bright-red, #d80027)" d="M356.2 211.5V178h11.1v-22.3H345V167h-22.2v-11.2h-22.3v22.3h11.2v33.4h-22.3v-78h11.1v-22.2h-22.2v11.1H267v-11h-22v11h-11.2v-11h-22.2v22.2h11.1v77.9h-22.3V178h11.2v-22.3h-22.3V167H167v-11.2h-22.3v22.3h11.1v33.4h-22.2v89h244.8v-89z"/><path fill="var(--flag-palette-dark-yellow, #ffc635)" d="M256 289.4a33.4 33.4 0 0 0-11.1 64.9v46.4h-33.4v44.5H267v-91a33.4 33.4 0 0 0-11.1-64.8m0 44.5a11.1 11.1 0 1 1 0-22.2 11.1 11.1 0 0 1 0 22.2"/></svg>
